X:3685
L:1/16
M:2/2
K:D
 d2>e2d2>f2 d2e2d2f2 | e2>f2 gfed Tc4 e2fg | f2d2d2A2 d2e2d2f2 | a2>b2 abag Tf4 a4 | 
 g2>a2g2>b2 f2>g2a2>f2 | e2>f2 (gf)(ed) Tc4 e4 | (dc)(BA) (BA)(GF) GFED E2g2 | f2ga e2>f2 d4 D4 :: 
 f2ga d2g2 fgaf d2>f2 | e2<f2 (gf)(ed) Tc4 e4 | f2ga B2g2 f2ga d2f2 | a2>b2 abag Tf4 a4 | 
 gTfga g2b2 Tf(efg) f2a2 | gfed Tc4 e4 | dcBA BAGF GFED E2>g2 | (fga2) Te2>f2 d4 D2 :|

